X: 38219
T: Squall
R: waltz
M: 3/4
K: Eminor
[M:5/4]|:"Em" EB.cBAG FGFE|"C" EBcBAG FG"D" A2|
"Em" EB.cBAG FG (3(F/G/F/)E|"C" EB.cBAG FG"D" A2:|
[M:3/4]|:"Gmaj7" BA B{/e}f e2|"Cmaj7" BA({/c} dc) c2|"Am7" cB GA B2|"C/D" AG F/G/A GE:|
|:"E" BA Bf ^g2|"E/G#"{^ga} gf{fg} fe ed|"A" d^c cd c2|1 "C"^c=c c(d/c/) BA:|
[2 "C"cB/c/ d/c/B/A/ BG||

